!!!!SEGMENT: pl-sa--l-1643--101_anonim--kyrie-eleison.krn
!!!cenid: 16xx:1459
!!!COM: Anonim
!!!COM-rismID: pe30004985
!!!CDT:
!!!CNT:
!!!OTL: Kyrie eleison
!!!PDT:
!!!AGN: Sacred
!!!SMS-siglum: PL-SA
!!!SMS-shelfmark: L 1643
!!!SMS-shelfwork: 101 W
!!!SMS-variant:
!!!SMS-altvar:
!!!NIFC-rismSourceID: 1001064393
!!!NIFC-islandoraID:
!!!URL-pdf-islandora:
!!!URL-scan:
!!!ONB-nifc: UWAGA: 8 ksiąg. Primi chori: 1mus Cantus (x), C 2dus (174-177), C 3tius (x), Bassus (x); Secondi chori: Primus Cantus (x), C 2dus (x), Altus (x), Bassus (x). UWAGA: Nie dodawać pustych linii, chyba że w rękopisie pojawiają się dodatkowe oznaczenia dotyczące pełnej obsady (a 4, a 8 itp.)
!!!AIN: 1 empty
!!!key:
**kern	**text	**text	**text	**text	**text	**text	**text	**text	**text	**text
*part1	*part1	*part1	*part1	*part1	*part1	*part1	*part1	*part1	*part1	*part1
*staff1	*	*	*	*	*	*	*	*	*	*
*Iempty	*	*	*	*	*	*	*	*	*	*
*I"Cantus 2dus Primi Chori.	*	*	*	*	*	*	*	*	*	*
*I'Coro 1 C 2	*	*	*	*	*	*	*	*	*	*
*clefC1	*	*	*	*	*	*	*	*	*	*
*k[]	*	*	*	*	*	*	*	*	*	*
*a:	*	*	*	*	*	*	*	*	*	*
*M2/1	*	*	*	*	*	*	*	*	*	*
=1-	=1-	=1-	=1-	=1-	=1-	=1-	=1-	=1-	=1-	=1-
!!LO:TX:a:t=P:w źródle znajdują się kropki oznaczające recytację; kropki dodane zgodnie ze źródłem; w miejscach gdzie jest więcej sylab, kropki dodane zgodnie z liczbą sylab:problem
1cc	Ki-	.	.	.	.	.	.	.	.	.
2.a\	-rÿ-	.	.	.	.	.	.	.	.	.
4b\	-e	.	.	.	.	.	.	.	.	.
=2-	=2-	=2-	=2-	=2-	=2-	=2-	=2-	=2-	=2-	=2-
2cc\	e-	.	.	.	.	.	.	.	.	.
2cc\	-leÿ-	.	.	.	.	.	.	.	.	.
1b	.	.	.	.	.	.	.	.	.	.
=3-	=3-	=3-	=3-	=3-	=3-	=3-	=3-	=3-	=3-	=3-
!LO:TX:a:t=P:problem=w źródle fermata bez kropki	!	!	!	!	!	!	!	!	!	!
!LO:TX:t=P:problem=kreska pseudotaktowa	!	!	!	!	!	!	!	!	!	!
1a;<	-son	.	.	.	.	.	.	.	.	.
00r	.	.	.	.	.	.	.	.	.	.
=4-	=4-	=4-	=4-	=4-	=4-	=4-	=4-	=4-	=4-	=4-
.	.	.	.	.	.	.	.	.	.	.
=5-	=5-	=5-	=5-	=5-	=5-	=5-	=5-	=5-	=5-	=5-
.	.	.	.	.	.	.	.	.	.	.
1cc	Kÿ-	.	.	.	.	.	.	.	.	.
=6-	=6-	=6-	=6-	=6-	=6-	=6-	=6-	=6-	=6-	=6-
2.b\	-ri-	.	.	.	.	.	.	.	.	.
4cc\	-e	.	.	.	.	.	.	.	.	.
2dd\	e-	.	.	.	.	.	.	.	.	.
2a\	-leÿ-	.	.	.	.	.	.	.	.	.
=7-	=7-	=7-	=7-	=7-	=7-	=7-	=7-	=7-	=7-	=7-
1cc	.	.	.	.	.	.	.	.	.	.
!LO:TX:a:t=P:problem=w źródle fermata bez kropki	!	!	!	!	!	!	!	!	!	!
!LO:TX:t=P:problem=kreska pseudotaktowa	!	!	!	!	!	!	!	!	!	!
1b;<	-son	.	.	.	.	.	.	.	.	.
=8	=8	=8-	=8-	=8-	=8-	=8-	=8-	=8-	=8-	=8-
00r	.	.	.	.	.	.	.	.	.	.
=9-	=9-	=9-	=9-	=9-	=9-	=9-	=9-	=9-	=9-	=9-
.	.	.	.	.	.	.	.	.	.	.
=10-	=10-	=10-	=10-	=10-	=10-	=10-	=10-	=10-	=10-	=10-
1cc	Chrÿ-	.	.	.	.	.	.	.	.	.
2b\	-ſte	.	.	.	.	.	.	.	.	.
2b\	e-	.	.	.	.	.	.	.	.	.
=11-	=11-	=11-	=11-	=11-	=11-	=11-	=11-	=11-	=11-	=11-
2dd\	-xa-	.	.	.	.	.	.	.	.	.
2a\	-di	.	.	.	.	.	.	.	.	.
!LO:TX:a:t=P:problem=w źródle fermata bez kropki	!	!	!	!	!	!	!	!	!	!
!LO:TX:t=P:problem=kreska pseudotaktowa	!	!	!	!	!	!	!	!	!	!
1b;<	nos	.	.	.	.	.	.	.	.	.
=12	=12	=12-	=12-	=12-	=12-	=12-	=12-	=12-	=12-	=12-
!LO:TX:t=P:problem=# below	!	!	!	!	!	!	!	!	!	!
1cc#X	Pa-	.	.	.	.	.	.	.	.	.
!LO:SIC:v:t=custos:użyty jako łamanie pięciolinii	!	!	!	!	!	!	!	!	!	!
Ree	-ter	.	.	.	.	.	.	.	.	.
!LO:LB:g=original	!	!	!	!	!	!	!	!	!	!
Ree	de	.	.	.	.	.	.	.	.	.
Ree	cae-	.	.	.	.	.	.	.	.	.
Ree	-lis	.	.	.	.	.	.	.	.	.
Ree	.	.	.	.	.	.	.	.	.	.
Ree	.	.	.	.	.	.	.	.	.	.
Ree	.	.	.	.	.	.	.	.	.	.
1dd	de-	.	.	.	.	.	.	.	.	.
=13-	=13-	=13-	=13-	=13-	=13-	=13-	=13-	=13-	=13-	=13-
!LO:TX:a:t=P:problem=w źródle fermata bez kropki	!	!	!	!	!	!	!	!	!	!
!LO:TX:t=P:problem=kreska pseudotaktowa	!	!	!	!	!	!	!	!	!	!
!LO:TX:t=P:problem=# below	!	!	!	!	!	!	!	!	!	!
1cc#X;<	-us	.	.	.	.	.	.	.	.	.
00r	.	.	.	.	.	.	.	.	.	.
=14-	=14-	=14-	=14-	=14-	=14-	=14-	=14-	=14-	=14-	=14-
.	.	.	.	.	.	.	.	.	.	.
=15-	=15-	=15-	=15-	=15-	=15-	=15-	=15-	=15-	=15-	=15-
.	.	.	.	.	.	.	.	.	.	.
1ccny	Fi-	.	.	.	.	.	.	.	.	.
Ree	-li	.	.	.	.	.	.	.	.	.
Ree	re-	.	.	.	.	.	.	.	.	.
Ree	-dem-	.	.	.	.	.	.	.	.	.
Ree	-ptor	.	.	.	.	.	.	.	.	.
Ree	.	.	.	.	.	.	.	.	.	.
=16-	=16-	=16-	=16-	=16-	=16-	=16-	=16-	=16-	=16-	=16-
2a\	mun-	.	.	.	.	.	.	.	.	.
2a\	-di	.	.	.	.	.	.	.	.	.
1a	de-	.	.	.	.	.	.	.	.	.
=17-	=17-	=17-	=17-	=17-	=17-	=17-	=17-	=17-	=17-	=17-
!LO:TX:t=P:problem=kreska pseudotaktowa	!	!	!	!	!	!	!	!	!	!
1a;<	-us	.	.	.	.	.	.	.	.	.
00r	.	.	.	.	.	.	.	.	.	.
=18-	=18-	=18-	=18-	=18-	=18-	=18-	=18-	=18-	=18-	=18-
.	.	.	.	.	.	.	.	.	.	.
=19-	=19-	=19-	=19-	=19-	=19-	=19-	=19-	=19-	=19-	=19-
.	.	.	.	.	.	.	.	.	.	.
1cc	Spi-	.	.	.	.	.	.	.	.	.
Ree	-ri-	.	.	.	.	.	.	.	.	.
Ree	-tus	.	.	.	.	.	.	.	.	.
Ree	.	.	.	.	.	.	.	.	.	.
=20-	=20-	=20-	=20-	=20-	=20-	=20-	=20-	=20-	=20-	=20-
2b\	san-	.	.	.	.	.	.	.	.	.
2g/	-cte	.	.	.	.	.	.	.	.	.
2a\	de-	.	.	.	.	.	.	.	.	.
2b\	.	.	.	.	.	.	.	.	.	.
=21-	=21-	=21-	=21-	=21-	=21-	=21-	=21-	=21-	=21-	=21-
!LO:TX:t=P:problem=kreska pseudotaktowa	!	!	!	!	!	!	!	!	!	!
1cc;<	-us	.	.	.	.	.	.	.	.	.
00r	.	.	.	.	.	.	.	.	.	.
=22-	=22-	=22-	=22-	=22-	=22-	=22-	=22-	=22-	=22-	=22-
.	.	.	.	.	.	.	.	.	.	.
=23-	=23-	=23-	=23-	=23-	=23-	=23-	=23-	=23-	=23-	=23-
.	.	.	.	.	.	.	.	.	.	.
1cc	San-	.	.	.	.	.	.	.	.	.
!LO:SIC:v:t=custos:użyty jako łamanie pięciolinii	!	!	!	!	!	!	!	!	!	!
Ree	-cta	.	.	.	.	.	.	.	.	.
!LO:LB:g=original	!	!	!	!	!	!	!	!	!	!
Ree	tri-	.	.	.	.	.	.	.	.	.
Ree	-ni-	.	.	.	.	.	.	.	.	.
Ree	-tas	.	.	.	.	.	.	.	.	.
Ree	.	.	.	.	.	.	.	.	.	.
=24-	=24-	=24-	=24-	=24-	=24-	=24-	=24-	=24-	=24-	=24-
2a\	v-	.	.	.	.	.	.	.	.	.
2cc\	-nus	.	.	.	.	.	.	.	.	.
1b	de-	.	.	.	.	.	.	.	.	.
=25-	=25-	=25-	=25-	=25-	=25-	=25-	=25-	=25-	=25-	=25-
!LO:TX:t=P:problem=kreska pseudotaktowa	!	!	!	!	!	!	!	!	!	!
1cc#X;<	-us	.	.	.	.	.	.	.	.	.
2ccny\	Mi-	.	.	.	.	.	.	.	.	.
2cc\	-se-	.	.	.	.	.	.	.	.	.
=26-	=26-	=26-	=26-	=26-	=26-	=26-	=26-	=26-	=26-	=26-
2a\	-re-	.	.	.	.	.	.	.	.	.
2a\	-re	.	.	.	.	.	.	.	.	.
1a	no-	.	.	.	.	.	.	.	.	.
=27-	=27-	=27-	=27-	=27-	=27-	=27-	=27-	=27-	=27-	=27-
*custos:cc	*	*	*	*	*	*	*	*	*	*
!LO:TX:a:t=P:problem=w źródle fermata bez kropki	!	!	!	!	!	!	!	!	!	!
!LO:TX:t=P:problem=kreska pseudotaktowa	!	!	!	!	!	!	!	!	!	!
1b;<	-bis	.	.	.	.	.	.	.	.	.
!LO:LB:g=original	!	!	!	!	!	!	!	!	!	!
1cc	Pa-	De-	Fru-	Vi-	Pa-	.	.	.	.	.
Ree	-nis	-us	-men-	-num	-nis	.	.	.	.	.
Ree	vi-	ab-	-tum	ger-	pin-	.	.	.	.	.
Ree	-vus	-scon-	.	-mi-	-gu-	.	.	.	.	.
Ree	qui	-di-	.	.	-is	.	.	.	.	.
Ree	de	-tus	.	.	et	.	.	.	.	.
Ree	cae-	.	.	.	de-	.	.	.	.	.
Ree	-lo	.	.	.	-li-	.	.	.	.	.
Ree	.	.	.	.	.	.	.	.	.	.
=28-	=28-	=28-	=28-	=28-	=28-	=28-	=28-	=28-	=28-	=28-
2a\	de-	et	e-	-nans	-ci-	.	.	.	.	.
2g/	-scen-	sal-	-le-	vir-	-ae-	.	.	.	.	.
2a\	-di-	-va-	-cto-	-gi-	-re-	.	.	.	.	.
2b\	.	.	.	.	.	.	.	.	.	.
=29-	=29-	=29-	=29-	=29-	=29-	=29-	=29-	=29-	=29-	=29-
!LO:TX:t=P:problem=kreska pseudotaktowa	!	!	!	!	!	!	!	!	!	!
1cc;<	-ſti	-tor	-rum	-nens	-gum	.	.	.	.	.
00r	.	.	.	.	.	.	.	.	.	.
=30-	=30-	=30-	=30-	=30-	=30-	=30-	=30-	=30-	=30-	=30-
.	.	.	.	.	.	.	.	.	.	.
=31-	=31-	=31-	=31-	=31-	=31-	=31-	=31-	=31-	=31-	=31-
.	.	.	.	.	.	.	.	.	.	.
2cc\	Iu-	Ob-	A-	Men-	An-	Man-	.	.	.	.
2cc\	-ge	-la-	-gnus	-sa,	-ge-	-na	.	.	.	.
=32-	=32-	=32-	=32-	=32-	=32-	=32-	=32-	=32-	=32-	=32-
2b\	ſa-	-ti-	ab-	pu-	.	.	.	.	.	.
2b\	-cri-	-o	-sque	-ri-	-lo-	ab-	.	.	.	.
2.a\	-fi-	mun-	ma-	.	-rum	-sco-	.	.	.	.
4a\	-ci-	.	-cu-	-si-	es-	-di-	.	.	.	.
=33-	=33-	=33-	=33-	=33-	=33-	=33-	=33-	=33-	=33-	=33-
!LO:TX:t=P:problem=# below	!	!	!	!	!	!	!	!	!	!
1g#X;>	-um	-da	-la	-na	-ca	-rum	.	.	.	.
*custos:cc	*	*	*	*	*	*	*	*	*	*
00r	.	.	.	.	.	.	.	.	.	.
=34-	=34-	=34-	=34-	=34-	=34-	=34-	=34-	=34-	=34-	=34-
.	.	.	.	.	.	.	.	.	.	.
=35-	=35-	=35-	=35-	=35-	=35-	=35-	=35-	=35-	=35-	=35-
.	.	.	.	.	.	.	.	.	.	.
!LO:PB:g=original	!	!	!	!	!	!	!	!	!	!
1cc	Me-	Pa-	.	.	.	Ca-	.	.	.	.
Ree	-mo-	-nis	.	.	.	.	.	.	.	.
Ree	-ri-	.	.	.	.	.	.	.	.	.
Ree	-a	.	.	.	.	.	.	.	.	.
=36-	=36-	=36-	=36-	=36-	=36-	=36-	=36-	=36-	=36-	=36-
1cc	mi-	su-	ver-	ha-	.	-lix	mi-	.	.	.
2cc\	-ra-	-per	-bum	-bi-	.	be-	-ſte-	.	.	.
2cc\	-bi-	sub-	ca-	-tans	ho-	-ne-	-ri-	.	.	.
=37-	=37-	=37-	=37-	=37-	=37-	=37-	=37-	=37-	=37-	=37-
2b\	-li-	-ſtan-	-ro	in	-sti-	-di-	-um	.	.	.
2gny/	-um	-ti-	fa-	no-	-a	-cti-	fi-	.	.	.
2a\	de-	-a-	.	.	san-	-o-	-de-	.	.	.
2b\	.	.	.	.	.	.	.	.	.	.
=38-	=38-	=38-	=38-	=38-	=38-	=38-	=38-	=38-	=38-	=38-
!LO:TX:t=P:problem=kreska pseudotaktowa	!	!	!	!	!	!	!	!	!	!
1cc;<	-i	-lis	-ctu(m)	-bis	-cta	-nis	-i	.	.	.
00r	.	.	.	.	.	.	.	.	.	.
=39-	=39-	=39-	=39-	=39-	=39-	=39-	=39-	=39-	=39-	=39-
.	.	.	.	.	.	.	.	.	.	.
=40-	=40-	=40-	=40-	=40-	=40-	=40-	=40-	=40-	=40-	=40-
.	.	.	.	.	.	.	.	.	.	.
1cc	Prae-	Sa-	Ve-	Cae-	Stu-	Sa-	Do-	Me-	.	.
Ree	-cel-	-cri-	-re	-leſ-	-pen-	-ca-	-mum	-mo-	.	.
Ree	-sum	-fi-	pro-	-te	-dum	-riſ-	tran-	-ria-	.	.
Ree	et	-cum	-pi-	an-	su-	-si-	-ſcen-	-le	.	.
Ree	ve-	om-	-tia-	-ti-	-pra	-ma	-dens	prae-	.	.
Ree	-ne-	-ni-	-to-	-do-	om-	do-	om-	-ci-	.	.
Ree	-ra-	-um	-rum	-tum	-ni-	-mi-	-nem	-pu-	.	.
Ree	-bi-	.	pro	quo	-a	-ni-	ple-	-um	.	.
Ree	-le	.	vi-	a	.	-cae	.	di-	.	.
Ree	.	.	-vis	pec-	.	paſ-	.	-vi-	.	.
Ree	.	.	.	-ca-	.	-sio-	.	.	.	.
Ree	.	.	.	-tis	.	-nis	.	.	.	.
.	.	.	.	.	.	com-	.	.	.	.
=41-	=41-	=41-	=41-	=41-	=41-	=41-	=41-	=41-	=41-	=41-
2b\	sa-	san-	et	prae-	mi-	-me-	-ni-	-ni	.	.
2cc\	-cra-	-cti	de-	-ser-	-ra-	-mo-	-tu-	a-	.	.
1cc	-men-	si-	-fun-	-va-	-cu-	-ra-	-di-	-mo-	.	.
=42-	=42-	=42-	=42-	=42-	=42-	=42-	=42-	=42-	=42-	=42-
1cc;<	-tum	-mu	-ctis	-mur	-lum	-tio	-nem	-ris	.	.
*custos:cc	*	*	*	*	*	*	*	*	*	*
00r	.	.	.	.	.	.	.	.	.	.
=43-	=43-	=43-	=43-	=43-	=43-	=43-	=43-	=43-	=43-	=43-
.	.	.	.	.	.	.	.	.	.	.
=44-	=44-	=44-	=44-	=44-	=44-	=44-	=44-	=44-	=44-	=44-
.	.	.	.	.	.	.	.	.	.	.
!LO:LB:g=original	!	!	!	!	!	!	!	!	!	!
2cc\	Mi-	.	.	.	.	.	.	.	.	.
4cc\	-se-	.	.	.	.	.	.	.	.	.
4b\	.	.	.	.	.	.	.	.	.	.
=45-	=45-	=45-	=45-	=45-	=45-	=45-	=45-	=45-	=45-	=45-
2a\	-re-	.	.	.	.	.	.	.	.	.
2.a\	-re	.	.	.	.	.	.	.	.	.
8g/L	.	.	.	.	.	.	.	.	.	.
8f/J	.	.	.	.	.	.	.	.	.	.
!LO:TX:t=P:problem=# below	!	!	!	!	!	!	!	!	!	!
2g#X/	no-	.	.	.	.	.	.	.	.	.
=46-	=46-	=46-	=46-	=46-	=46-	=46-	=46-	=46-	=46-	=46-
!LO:TX:t=P:problem=kreska pseudotaktowa	!	!	!	!	!	!	!	!	!	!
1a;<	-bis	.	.	.	.	.	.	.	.	.
1b	Sa-	Vin-	Of-	Spi-	Re-	Via-	Pi-	.	.	.
Rdd	-cra-	-cu-	-fe-	-ri-	-fec-	-cu-	-gnus	.	.	.
Rdd	-men-	-lum	-rens	-tu-	-tio	-rum	fu-	.	.	.
Rdd	-tum	.	et	-a-	a-	in	-tu-	.	.	.
Rdd	.	.	.	-is	-ni-	do-	-rae	.	.	.
Rdd	.	.	.	dul-	-ma-	-mi-	.	.	.	.
Rdd	.	.	.	-ce-	-rum	-no	.	.	.	.
Rdd	.	.	.	-do	.	.	.	.	.	.
Rdd	.	.	.	in	.	.	.	.	.	.
Rdd	.	.	.	pro-	.	.	.	.	.	.
Rdd	.	.	.	prio	.	.	.	.	.	.
Rdd	.	.	.	fon-	.	.	.	.	.	.
Rdd	.	.	.	-te	.	.	.	.	.	.
=47-	=47-	=47-	=47-	=47-	=47-	=47-	=47-	=47-	=47-	=47-
2cc\	pi-	cha-	o-	de-	ſan-	mo-	glo-	.	.	.
2a\	-e-	-ri-	-bla-	-gu-	.	-ri-	.	.	.	.
1a	-ta-	-ta-	-ti-	-sta-	-cta-	-en-	-ri-	.	.	.
=48-	=48-	=48-	=48-	=48-	=48-	=48-	=48-	=48-	=48-	=48-
!LO:TX:a:t=P:problem=w źródle fermata bez kropki	!	!	!	!	!	!	!	!	!	!
!LO:TX:t=P:problem=kreska pseudotaktowa	!	!	!	!	!	!	!	!	!	!
1a;<	-ris	-tis	-o	-ta	-rum	-tium	-ae;	.	.	.
00r	.	.	.	.	.	.	.	.	.	.
=49-	=49-	=49-	=49-	=49-	=49-	=49-	=49-	=49-	=49-	=49-
.	.	.	.	.	.	.	.	.	.	.
=50-	=50-	=50-	=50-	=50-	=50-	=50-	=50-	=50-	=50-	=50-
.	.	.	.	.	.	.	.	.	.	.
2b\	Pro-	.	.	.	.	.	.	.	.	.
2b\	-pi-	.	.	.	.	.	.	.	.	.
=51-	=51-	=51-	=51-	=51-	=51-	=51-	=51-	=51-	=51-	=51-
2cc\	-ti-	.	.	.	.	.	.	.	.	.
2.cc\	-us	.	.	.	.	.	.	.	.	.
8b\L	.	.	.	.	.	.	.	.	.	.
8a\J	.	.	.	.	.	.	.	.	.	.
2b\	e-	.	.	.	.	.	.	.	.	.
=52-	=52-	=52-	=52-	=52-	=52-	=52-	=52-	=52-	=52-	=52-
!LO:TX:t=P:problem=kreska pseudotaktowa	!	!	!	!	!	!	!	!	!	!
1cc;<	-ſto,	.	.	.	.	.	.	.	.	.
00r	.	.	.	.	.	.	.	.	.	.
=53-	=53-	=53-	=53-	=53-	=53-	=53-	=53-	=53-	=53-	=53-
.	.	.	.	.	.	.	.	.	.	.
=54-	=54-	=54-	=54-	=54-	=54-	=54-	=54-	=54-	=54-	=54-
.	.	.	.	.	.	.	.	.	.	.
!LO:PB:g=original	!	!	!	!	!	!	!	!	!	!
1b	Ab	A	A	A	Ab	Per	Per	Per	Per	Per
Rdd	in-	con-	con-	su-	om-	de-	ſum-	ar-	ſan-	quin-
Rdd	-di-	-sum-	-cu-	-per-	-ni	-si-	-mam	-den-	-qui-	-que
Rdd	-gna	-pi-	-pi-	-bia	pec-	-de-	hu-	-tiſ-	-nem	vul-
Rdd	cor-	-scen-	-scen-	vi-	-can-	-ri-	-mi-	-si-	tu-	-ne-
Rdd	-po-	-tia	-tia	.	-di	-um	-li-	-mam	-um	-ra
Rdd	-ris	car-	o-	.	oc-	il-	-ta-	cha-	prae-	hu-
Rdd	et	.	-cu-	.	-ca-	-lud	-tem	-ri-	-ti-	-ius
Rdd	ſan-	.	-lo-	.	-sio-	quo	qua	-ta-	-o-	tu-
Rdd	-gui-	.	.	.	.	choc	di-	-tem	-ſum	-i
Rdd	-nis	.	.	.	.	pa-	sci-	quae	quem	cor-
Rdd	tu-	.	.	.	.	-scha	-pu-	hoc	no-	-po-
Rdd	-i	.	.	.	.	cum	-lo-	di-	-bis	-ris
Rdd	ſu-	.	.	.	.	di-	-rum	-vi-	in	ſa-
Rdd	-scep-	.	.	.	.	-sci-	pe-	-num	al-	-cra-
Rdd	-tio-	.	.	.	.	-pu-	-des	la-	-ta-	-tiſ-
Rdd	.	.	.	.	.	-lis	la-	-cra-	-ri	-smi
Rdd	.	.	.	.	.	man-	-vi-	-men-	re-	quae
Rdd	.	.	.	.	.	-du-	.	-tum	-li-	pro
Rdd	.	.	.	.	.	-ca-	.	in-	-qui-	no-
Rdd	.	.	.	.	.	-re	.	-ſti-	.	-bis
Rdd	.	.	.	.	.	de-	.	-tu-	.	ſu-
Rdd	.	.	.	.	.	-si-	.	-i-	.	-sce-
Rdd	.	.	.	.	.	-de-	.	.	.	-pi-
Rdd	.	.	.	.	.	-ra	.	.	.	.
=55-	=55-	=55-	=55-	=55-	=55-	=55-	=55-	=55-	=55-	=55-
!LO:TX:t=P:problem=kreska pseudotaktowa	!	!	!	!	!	!	!	!	!	!
1cc;<	-ne	-nis	-rum	-te	-ne	-ſti	-ſti	-sti	-ſti	-sti,
00r	.	.	.	.	.	.	.	.	.	.
=56-	=56-	=56-	=56-	=56-	=56-	=56-	=56-	=56-	=56-	=56-
.	.	.	.	.	.	.	.	.	.	.
=57-	=57-	=57-	=57-	=57-	=57-	=57-	=57-	=57-	=57-	=57-
.	.	.	.	.	.	.	.	.	.	.
00r	.	.	.	.	.	.	.	.	.	.
=58-	=58-	=58-	=58-	=58-	=58-	=58-	=58-	=58-	=58-	=58-
.	.	.	.	.	.	.	.	.	.	.
=59-	=59-	=59-	=59-	=59-	=59-	=59-	=59-	=59-	=59-	=59-
.	.	.	.	.	.	.	.	.	.	.
2cc\	Te	.	.	.	.	.	.	.	.	.
2cc\	ro-	.	.	.	.	.	.	.	.	.
=60-	=60-	=60-	=60-	=60-	=60-	=60-	=60-	=60-	=60-	=60-
2cc\	-ga-	.	.	.	.	.	.	.	.	.
2dd\	-mus	.	.	.	.	.	.	.	.	.
2dd\	au-	.	.	.	.	.	.	.	.	.
2b\	-di-	.	.	.	.	.	.	.	.	.
=61-	=61-	=61-	=61-	=61-	=61-	=61-	=61-	=61-	=61-	=61-
!LO:TX:t=P:problem=kreska pseudotaktowa	!	!	!	!	!	!	!	!	!	!
1cc;<	-nos	.	.	.	.	.	.	.	.	.
1cc	Vt	Vt	Vt	Vt	Vt	.	.	.	.	.
Ree	in	ad	nos	ſan-	in	.	.	.	.	.
Ree	no-	fre-	ab	-ctiſ-	ho-	.	.	.	.	.
Ree	-bis	-quen-	om-	-ſi-	-ra	.	.	.	.	.
Ree	re-	-tem	-ni	-mi	mor-	.	.	.	.	.
Ree	-ve-	v-	hae-	hu-	-tis	.	.	.	.	.
Ree	-ren-	-ſum	-re-	-ius	noſ-	.	.	.	.	.
Ree	-ti-	Eu-	-ſti,	Sa-	-trae	.	.	.	.	.
Ree	-am	-cha-	per-	-cra-	hoc	.	.	.	.	.
Ree	et	-ri-	-fi-	-men-	cae-	.	.	.	.	.
Ree	de-	-ſti-	-dia	-ti	-leſ-	.	.	.	.	.
Ree	-vo-	-ae	ac	pre-	-ti	.	.	.	.	.
Ree	-ti-	ve-	cor-	-cio-	via-	.	.	.	.	.
Ree	-o-	-ram	-dis	-ſos	-ti-	.	.	.	.	.
Ree	-nem	pec-	cae-	(et)	-co	.	.	.	.	.
Ree	hu-	-ca-	-ci-	ce-	nos	.	.	.	.	.
Ree	-ius	-to-	-ta-	-leſ-	con-	.	.	.	.	.
Ree	ad-	-rum	-te	-tes	-for-	.	.	.	.	.
Ree	-mi-	con-	li-	fru-	-ta-	.	.	.	.	.
Ree	-ra-	-feſ-	-be-	-ctus	-re	.	.	.	.	.
Ree	-bi-	-ſio-	.	no-	et	.	.	.	.	.
Ree	-lis	-nem	.	-bis	mu-	.	.	.	.	.
Ree	ſa-	nos	.	im-	.	.	.	.	.	.
Ree	-cra-	per-	.	-par-	.	.	.	.	.	.
Ree	-men-	-du-	.	.	.	.	.	.	.	.
Ree	-ti	.	.	.	.	.	.	.	.	.
Ree	au-	.	.	.	.	.	.	.	.	.
Ree	-ge-	.	.	.	.	.	.	.	.	.
Ree	-re	.	.	.	.	.	.	.	.	.
Ree	(et)	.	.	.	.	.	.	.	.	.
Ree	con-	.	.	.	.	.	.	.	.	.
Ree	-ſer-	.	.	.	.	.	.	.	.	.
=62-	=62-	=62-	=62-	=62-	=62-	=62-	=62-	=62-	=62-	=62-
2b\	-va-	-ce-	-ra-	-ti-	-ni-	.	.	.	.	.
2gny/	-re	-re	-re	-ri	-re	.	.	.	.	.
2a\	di-	di-	di-	di-	di-	.	.	.	.	.
2b\	-gne-	-gne-	-gne-	-gne-	-gne-	.	.	.	.	.
=63-	=63-	=63-	=63-	=63-	=63-	=63-	=63-	=63-	=63-	=63-
1cc;<	-ris	-ris	-ris	-ris	-ris,	.	.	.	.	.
!LO:PB:g=original	!	!	!	!	!	!	!	!	!	!
00r	.	.	.	.	.	.	.	.	.	.
=64-	=64-	=64-	=64-	=64-	=64-	=64-	=64-	=64-	=64-	=64-
.	.	.	.	.	.	.	.	.	.	.
=65-	=65-	=65-	=65-	=65-	=65-	=65-	=65-	=65-	=65-	=65-
.	.	.	.	.	.	.	.	.	.	.
1b	Fi-	.	.	.	.	.	.	.	.	.
=66-	=66-	=66-	=66-	=66-	=66-	=66-	=66-	=66-	=66-	=66-
1a	-li	.	.	.	.	.	.	.	.	.
1a	de-	.	.	.	.	.	.	.	.	.
=67-	=67-	=67-	=67-	=67-	=67-	=67-	=67-	=67-	=67-	=67-
!LO:TX:a:t=P:problem=w źródle fermata bez kropki	!	!	!	!	!	!	!	!	!	!
!LO:TX:t=P:problem=kreska pseudotaktowa	!	!	!	!	!	!	!	!	!	!
1b;<	-i	.	.	.	.	.	.	.	.	.
2cc\	Te	.	.	.	.	.	.	.	.	.
2b\	ro-	.	.	.	.	.	.	.	.	.
=68-	=68-	=68-	=68-	=68-	=68-	=68-	=68-	=68-	=68-	=68-
2a\	-ga-	.	.	.	.	.	.	.	.	.
2dd\	-mus	.	.	.	.	.	.	.	.	.
2b\	au-	.	.	.	.	.	.	.	.	.
2b\	-di	.	.	.	.	.	.	.	.	.
=69-	=69-	=69-	=69-	=69-	=69-	=69-	=69-	=69-	=69-	=69-
!LO:TX:t=P:problem=kreska pseudotaktowa	!	!	!	!	!	!	!	!	!	!
1a;<	nos	.	.	.	.	.	.	.	.	.
2r	.	.	.	.	.	.	.	.	.	.
2.g/	A-	.	.	.	.	.	.	.	.	.
=70-	=70-	=70-	=70-	=70-	=70-	=70-	=70-	=70-	=70-	=70-
.	.	.	.	.	.	.	.	.	.	.
4a\	.	.	.	.	.	.	.	.	.	.
2b\	-gnus	.	.	.	.	.	.	.	.	.
1g	de-	.	.	.	.	.	.	.	.	.
=71-	=71-	=71-	=71-	=71-	=71-	=71-	=71-	=71-	=71-	=71-
2b\	-i	.	.	.	.	.	.	.	.	.
2g/	qui	.	.	.	.	.	.	.	.	.
2.a\	tol-	.	.	.	.	.	.	.	.	.
4b\	.	.	.	.	.	.	.	.	.	.
=72-	=72-	=72-	=72-	=72-	=72-	=72-	=72-	=72-	=72-	=72-
!LO:TX:t=P:global:problem=kreska oddechu na różnych liniach [rozdzielacz słów / znak oddechu]	!	!	!	!	!	!	!	!	!	!
2cc,<\	-lis	.	.	.	.	.	.	.	.	.
2g/	pec-	.	.	.	.	.	.	.	.	.
2b\	-ca-	.	.	.	.	.	.	.	.	.
*custos:a	*	*	*	*	*	*	*	*	*	*
2a\	-ta	.	.	.	.	.	.	.	.	.
!LO:LB:g=original	!	!	!	!	!	!	!	!	!	!
=73-	=73-	=73-	=73-	=73-	=73-	=73-	=73-	=73-	=73-	=73-
1a	mun-	.	.	.	.	.	.	.	.	.
!LO:TX:t=P:problem=kreska pseudotaktowa	!	!	!	!	!	!	!	!	!	!
1b	-di	.	.	.	.	.	.	.	.	.
=74	=74	=74-	=74-	=74-	=74-	=74-	=74-	=74-	=74-	=74-
2r	.	.	.	.	.	.	.	.	.	.
1cc	Par-	.	.	.	.	.	.	.	.	.
2cc\	-ce	.	.	.	.	.	.	.	.	.
=75-	=75-	=75-	=75-	=75-	=75-	=75-	=75-	=75-	=75-	=75-
2a\	no-	.	.	.	.	.	.	.	.	.
2a\	-bis	.	.	.	.	.	.	.	.	.
2.b\	do-	.	.	.	.	.	.	.	.	.
4b\	-mi-	.	.	.	.	.	.	.	.	.
=76-	=76-	=76-	=76-	=76-	=76-	=76-	=76-	=76-	=76-	=76-
!LO:TX:t=P:problem=kreska pseudotaktowa	!	!	!	!	!	!	!	!	!	!
!LO:TX:t=P:problem=# below	!	!	!	!	!	!	!	!	!	!
1cc#X	-ne	.	.	.	.	.	.	.	.	.
00r	.	.	.	.	.	.	.	.	.	.
=77-	=77-	=77-	=77-	=77-	=77-	=77-	=77-	=77-	=77-	=77-
.	.	.	.	.	.	.	.	.	.	.
=78-	=78-	=78-	=78-	=78-	=78-	=78-	=78-	=78-	=78-	=78-
.	.	.	.	.	.	.	.	.	.	.
00r	.	.	.	.	.	.	.	.	.	.
=79-	=79-	=79-	=79-	=79-	=79-	=79-	=79-	=79-	=79-	=79-
.	.	.	.	.	.	.	.	.	.	.
=80-	=80-	=80-	=80-	=80-	=80-	=80-	=80-	=80-	=80-	=80-
.	.	.	.	.	.	.	.	.	.	.
1r	.	.	.	.	.	.	.	.	.	.
=81-	=81-	=81-	=81-	=81-	=81-	=81-	=81-	=81-	=81-	=81-
2r	.	.	.	.	.	.	.	.	.	.
1ccny	AE-	.	.	.	.	.	.	.	.	.
2cc\	-xau-	.	.	.	.	.	.	.	.	.
=82-	=82-	=82-	=82-	=82-	=82-	=82-	=82-	=82-	=82-	=82-
2cc\	-di	.	.	.	.	.	.	.	.	.
2dd\	nos	.	.	.	.	.	.	.	.	.
2.dd\	do-	.	.	.	.	.	.	.	.	.
4dd\	-mi-	.	.	.	.	.	.	.	.	.
=83-	=83-	=83-	=83-	=83-	=83-	=83-	=83-	=83-	=83-	=83-
!LO:TX:t=P:problem=kreska pseudotaktowa	!	!	!	!	!	!	!	!	!	!
!LO:TX:t=P:problem=# below	!	!	!	!	!	!	!	!	!	!
1cc#X;<	-ne	.	.	.	.	.	.	.	.	.
2r	.	.	.	.	.	.	.	.	.	.
1cc#\	A-	.	.	.	.	.	.	.	.	.
=84-	=84-	=84-	=84-	=84-	=84-	=84-	=84-	=84-	=84-	=84-
.	.	.	.	.	.	.	.	.	.	.
2ccny\	-gnus	.	.	.	.	.	.	.	.	.
1dd	de-	.	.	.	.	.	.	.	.	.
=85-	=85-	=85-	=85-	=85-	=85-	=85-	=85-	=85-	=85-	=85-
2cc\	-i	.	.	.	.	.	.	.	.	.
*custos:cc	*	*	*	*	*	*	*	*	*	*
2cc\	qui	.	.	.	.	.	.	.	.	.
!LO:LB:g=original	!	!	!	!	!	!	!	!	!	!
1cc	tol-	.	.	.	.	.	.	.	.	.
=86-	=86-	=86-	=86-	=86-	=86-	=86-	=86-	=86-	=86-	=86-
2cc\	-lis	.	.	.	.	.	.	.	.	.
2cc\	pec-	.	.	.	.	.	.	.	.	.
2cc\	-ca-	.	.	.	.	.	.	.	.	.
2.cc\	-ta	.	.	.	.	.	.	.	.	.
=87-	=87-	=87-	=87-	=87-	=87-	=87-	=87-	=87-	=87-	=87-
.	.	.	.	.	.	.	.	.	.	.
8b\L	.	.	.	.	.	.	.	.	.	.
8a\J	.	.	.	.	.	.	.	.	.	.
2b\	mun-	.	.	.	.	.	.	.	.	.
1cc	-di	.	.	.	.	.	.	.	.	.
=88-	=88-	=88-	=88-	=88-	=88-	=88-	=88-	=88-	=88-	=88-
2r	.	.	.	.	.	.	.	.	.	.
1cc	mi-	.	.	.	.	.	.	.	.	.
2g/	-ſe-	.	.	.	.	.	.	.	.	.
=89-	=89-	=89-	=89-	=89-	=89-	=89-	=89-	=89-	=89-	=89-
2a\	-re-	.	.	.	.	.	.	.	.	.
2.cc\	-re	.	.	.	.	.	.	.	.	.
8b\L	.	.	.	.	.	.	.	.	.	.
8a\J	.	.	.	.	.	.	.	.	.	.
2b\	no-	.	.	.	.	.	.	.	.	.
=90-	=90-	=90-	=90-	=90-	=90-	=90-	=90-	=90-	=90-	=90-
!LO:TX:t=P:problem=kreska pseudotaktowa	!	!	!	!	!	!	!	!	!	!
1cc;<	-bis	.	.	.	.	.	.	.	.	.
1.cc	Ki-	.	.	.	.	.	.	.	.	.
=91-	=91-	=91-	=91-	=91-	=91-	=91-	=91-	=91-	=91-	=91-
.	.	.	.	.	.	.	.	.	.	.
2b\	-ri-	.	.	.	.	.	.	.	.	.
2cc\	-e	.	.	.	.	.	.	.	.	.
2dd\	e-	.	.	.	.	.	.	.	.	.
=92-	=92-	=92-	=92-	=92-	=92-	=92-	=92-	=92-	=92-	=92-
1b	-leÿ-	.	.	.	.	.	.	.	.	.
1a;<	-son	.	.	.	.	.	.	.	.	.
=93-	=93-	=93-	=93-	=93-	=93-	=93-	=93-	=93-	=93-	=93-
00r	.	.	.	.	.	.	.	.	.	.
=94-	=94-	=94-	=94-	=94-	=94-	=94-	=94-	=94-	=94-	=94-
.	.	.	.	.	.	.	.	.	.	.
=95-	=95-	=95-	=95-	=95-	=95-	=95-	=95-	=95-	=95-	=95-
*custos:cc	*	*	*	*	*	*	*	*	*	*
1r	.	.	.	.	.	.	.	.	.	.
!LO:LB:g=original	!	!	!	!	!	!	!	!	!	!
1.cc	Ki-	.	.	.	.	.	.	.	.	.
=96-	=96-	=96-	=96-	=96-	=96-	=96-	=96-	=96-	=96-	=96-
.	.	.	.	.	.	.	.	.	.	.
2dd\	-ri-	.	.	.	.	.	.	.	.	.
2dd\	-e	.	.	.	.	.	.	.	.	.
2cc\	e-	.	.	.	.	.	.	.	.	.
=97-	=97-	=97-	=97-	=97-	=97-	=97-	=97-	=97-	=97-	=97-
2b\	-leÿ-	.	.	.	.	.	.	.	.	.
2ee\	.	.	.	.	.	.	.	.	.	.
1cc#Xl;;	-son	.	.	.	.	.	.	.	.	.
==	==	==	==	==	==	==	==	==	==	==
*-	*-	*-	*-	*-	*-	*-	*-	*-	*-	*-
!!!system-decoration: [(s1)]
!!!RDF**kern: > = above
!!!RDF**kern: < = below
!!!RDF**kern: | = vertical stroke
!!!RDF**kern: N = linked
!!!RDF**kern: i = editorial accidental
!!!RDF**kern: l = terminal long
!!!ENC: Anastazja Marusiak
!!!END: 2021-11-01
!!!EED: Wojciech Jakubiak-Danek
!!!EEV: 2021-11-03
